web/packages/design/src/ResourceIcon/assets/maxio-dark.svg

<svg width="72" height="72" viewBox="0 0 72 72" fill="none" xmlns="http://www.w3.org/2000/svg">
<g clip-path="url(#clip0_16907_11690)">
<path d="M21.215 0.00360693L17.8264 3.39225L28.6687 14.1403V23.2412L27.5557 24.2566L12.2084 9.00857L8.91734 12.2996L24.1671 27.6453L23.2476 28.6624H14.2426L3.40025 17.8167L0.0595703 21.1574L12.306 33.4055H33.4168V12.1078L21.215 0.00195312V0.00360693ZM50.7817 0.00360693L54.172 3.39225L43.3297 14.1403V23.2412L44.4427 24.2566L59.7883 9.00857L63.0794 12.2996L47.8313 27.6453L48.7509 28.6624H57.7542L68.5965 17.8167L71.9372 21.1574L59.6908 33.4055H38.5833V12.1078L50.7817 0.00195312V0.00360693ZM21.215 72.0003L17.8264 68.6116L28.6687 57.8636V48.7627L27.5557 47.7473L12.2084 62.9953L8.91734 59.7043L24.1671 44.3586L23.2476 43.3415H14.2426L3.40025 54.1872L0.0595703 50.8465L12.306 38.5984H33.4168V59.8961L21.2167 72.002L21.215 72.0003ZM50.7817 72.0003L54.172 68.6116L43.3297 57.8636V48.7627L44.4427 47.7473L59.7883 62.9953L63.0794 59.7043L47.8313 44.3586L48.7509 43.3415H57.7542L68.5965 54.1872L71.9372 50.8465L59.6908 38.5984H38.5833V59.8961L50.7834 72.002L50.7817 72.0003Z" fill="white"/>
</g>
<defs>
<clipPath id="clip0_16907_11690">
<rect width="72" height="72" fill="white" transform="translate(0 0.00195312)"/>
</clipPath>
</defs>
</svg>

<svg xmlns="http://www.w3.org/2000/svg" width="72" height="72" fill="none" viewBox="0 0 72 72"><g clip-path="url(#clip0_16907_11690)"><path fill="#fff" d="m21.215.004-3.389 3.388L28.67 14.14v9.101l-1.113 1.016L12.208 9.009l-3.29 3.29 15.25 15.346-.92 1.017h-9.005L3.4 17.817l-3.34 3.34 12.246 12.249h21.11V12.108L21.216.002zm29.567 0 3.39 3.388L43.33 14.14v9.101l1.113 1.016L59.788 9.009l3.291 3.29-15.248 15.346.92 1.017h9.003l10.843-10.845 3.34 3.34-12.246 12.249H38.583V12.108L50.782.002zM21.215 72l-3.389-3.388L28.67 57.864v-9.101l-1.113-1.016-15.348 15.248-3.29-3.29 15.25-15.346-.92-1.017h-9.005L3.4 54.187l-3.34-3.34 12.246-12.249h21.11v21.298l-12.2 12.106zm29.567 0 3.39-3.388L43.33 57.864v-9.101l1.113-1.016 15.345 15.248 3.291-3.29-15.248-15.346.92-1.017h9.003l10.843 10.845 3.34-3.34-12.246-12.249H38.583v21.298l12.2 12.106z"/></g><defs><clipPath id="clip0_16907_11690"><path fill="#fff" d="M0 .002h72v72H0z"/></clipPath></defs></svg>
